X: 38170
T: Sportsman's, The
R: hornpipe
M: 4/4
K: Adorian
AB|:c2cA B2BA|GABc dBGB|c2cA B2BA|E2AG A2B2|
c2cA B2BA|GABc d2ef|gfge dBAG|1 E2AG A2B2:|2 E2AG A2Ac||
|:ABcd efge|afdf edcB|ABcd efge|afdf e2ef/g/|
a2a2 g2g2|edce dBGB|c2cA BcBA|1 E2AG A2Ac:|2 E2AG A2B2||

